packages/core/src/svgs/equ.svg

<svg width="24" height="24" viewBox="0 0 24 24" fill="none" xmlns="http://www.w3.org/2000/svg">
<g clip-path="url(#clip0_31_9990)">
<path d="M0 0H24V24H0V0Z" fill="#F0F3FA"/>
<path d="M9.85721 5.57129L7.71436 6.857L9.85721 8.14272L12.0001 6.857L9.85721 5.57129ZM14.1429 5.57129L12.0001 6.857L14.1429 8.14272L16.2858 6.857L14.1429 5.57129Z" fill="#C9EEFF"/>
<path d="M11.9998 6.85693L9.85693 8.14265L11.9998 9.42836L14.1426 8.14265L11.9998 6.85693Z" fill="#C9EEFF"/>
<path d="M9.857 8.14307L7.71415 9.42878L9.857 10.7145L11.9999 9.42878L9.857 8.14307ZM14.1427 8.14307L11.9999 9.42878L14.1427 10.7145L16.2856 9.42878L14.1427 8.14307ZM11.9999 12.0002L9.857 13.2859L11.9999 14.5716L14.1427 13.2859L11.9999 12.0002ZM5.57129 10.7145L7.71415 9.42878V12.0002L5.57129 10.7145ZM18.4284 10.7145L16.2856 9.42878V12.0002L18.4284 10.7145Z" fill="#C9EEFF"/>
<path d="M9.85721 8.14265L7.71436 6.85693V9.42836L9.85721 8.14265Z" fill="#59A8FE"/>
<path d="M11.9998 17.1426L9.85693 15.8569V18.4284L11.9998 17.1426ZM14.1426 8.14265L16.2855 6.85693V9.42836L14.1426 8.14265Z" fill="#5176E5"/>
<path d="M12.0001 17.143L14.1429 15.8573V18.4287L12.0001 17.143ZM9.85721 10.7144L7.71436 9.42871V12.0001L9.85721 13.2859V10.7144ZM14.1429 10.7144L12.0001 9.42871V12.0001L14.1429 13.2859V10.7144Z" fill="#59A8FE"/>
<path d="M14.1426 10.7144L16.2855 9.42871V12.0001L14.1426 13.2859V10.7144ZM9.85693 10.7144L11.9998 9.42871V12.0001L9.85693 13.2859V10.7144Z" fill="#5178E5"/>
<path d="M14.1429 13.2857L16.2857 12V14.5714L14.1429 15.8571V13.2857ZM12 14.5714L14.1429 13.2857V15.8571L12 17.1429V14.5714Z" fill="#5178E5"/>
<path d="M14.1431 15.8572L16.2859 14.5715V17.1429L14.1431 18.4286V15.8572ZM16.2859 12.0001L18.4288 10.7144V13.2858L16.2859 14.5715V12.0001Z" fill="#5178E5"/>
<path d="M7.71415 12.0001L5.57129 10.7144V13.2858L7.71415 14.5715V12.0001ZM9.857 13.2858L7.71415 12.0001V14.5715L9.857 15.8572V13.2858Z" fill="#59A8FE"/>
<path d="M9.85721 15.8571L7.71436 14.5714V17.1428L9.85721 18.4285V15.8571ZM12.0001 14.5714L9.85721 13.2856V15.8571L12.0001 17.1428V14.5714Z" fill="#59A8FE"/>
<path d="M9.75 13.2855V10.6455L9.85714 10.7141L9.96429 10.6455V13.2855H9.75ZM14.25 10.6455V13.2855H14.0357V10.6455L14.1429 10.7141L14.25 10.6455ZM14.0357 18.2141V15.6427H14.25V18.2141H14.0357ZM9.75 18.2141V15.8569H9.96429V18.2141H9.75Z" fill="#D5E9FF"/>
<path d="M14.1427 5.57129L16.2684 6.857L16.0713 6.977L14.1427 5.81986L12.2013 6.977L14.1427 8.14272L11.9999 9.45843L9.857 8.387L5.78557 10.8299V13.2556L9.74986 15.6256V13.3756L7.73129 12.1541L7.71415 11.9441L9.857 13.1913L11.9999 11.9484L14.1427 13.1913L16.2684 11.9484V12.1541L14.2499 13.3756V15.6256L18.2184 13.2556V10.8299L16.2856 9.64272L16.2684 9.41557L18.4284 10.7141V13.3713L12.2056 17.057L14.1427 18.1841L16.2684 16.9413V17.1427L14.1427 18.4284L11.9999 17.1813L9.857 18.4284L7.73129 17.147V16.937L9.857 18.1841L11.7941 17.057L5.57129 13.3713V10.7141L9.857 8.14272L11.9999 9.21415L13.7313 8.14272L9.857 5.81557L7.87272 6.97272L7.71415 6.857L9.857 5.57129L11.9999 6.857L14.1427 5.57129ZM11.9999 16.937L14.0356 15.7541V13.3713L11.9999 12.1884L9.96415 13.3756V15.7541L11.9999 16.937Z" fill="black"/>
</g>
<defs>
<clipPath id="clip0_31_9990">
<rect width="24" height="24" fill="white"/>
</clipPath>
</defs>
</svg>

<svg xmlns="http://www.w3.org/2000/svg" width="24" height="24" fill="none" viewBox="0 0 24 24"><g clip-path="url(#a)"><path fill="#F0F3FA" d="M0 0h24v24H0z"/><path fill="#C9EEFF" d="M9.857 5.571 7.714 6.857l2.143 1.286L12 6.857zm4.286 0L12 6.857l2.143 1.286 2.143-1.286z"/><path fill="#C9EEFF" d="M12 6.857 9.857 8.143 12 9.428l2.143-1.285z"/><path fill="#C9EEFF" d="M9.857 8.143 7.714 9.43l2.143 1.285L12 9.43zm4.286 0L12 9.43l2.143 1.285 2.143-1.285zM12 12l-2.143 1.286L12 14.572l2.143-1.286zM5.57 10.714 7.714 9.43V12zm12.857 0L16.286 9.43V12z"/><path fill="#59A8FE" d="M9.857 8.143 7.714 6.857v2.571z"/><path fill="#5176E5" d="m12 17.143-2.143-1.286v2.571zm2.143-9 2.142-1.286v2.571z"/><path fill="#59A8FE" d="m12 17.143 2.143-1.286v2.572zm-2.143-6.429L7.714 9.43V12l2.143 1.286zm4.286 0L12 9.43V12l2.143 1.286z"/><path fill="#5178E5" d="m14.143 10.714 2.142-1.285V12l-2.142 1.286zm-4.286 0L12 9.43V12l-2.143 1.286z"/><path fill="#5178E5" d="M14.143 13.286 16.286 12v2.571l-2.143 1.286zM12 14.57l2.143-1.285v2.571L12 17.143z"/><path fill="#5178E5" d="m14.143 15.857 2.143-1.285v2.57l-2.143 1.287zM16.286 12l2.143-1.286v2.572l-2.143 1.286z"/><path fill="#59A8FE" d="m7.714 12-2.143-1.286v2.572l2.143 1.286zm2.143 1.286L7.714 12v2.572l2.143 1.285z"/><path fill="#59A8FE" d="m9.857 15.857-2.143-1.286v2.572l2.143 1.285zM12 14.571l-2.143-1.285v2.571L12 17.143z"/><path fill="#D5E9FF" d="M9.75 13.286v-2.64l.107.068.107-.069v2.64zm4.5-2.64v2.64h-.214v-2.64l.107.068zm-.214 7.568v-2.571h.214v2.571zm-4.286 0v-2.357h.214v2.357z"/><path fill="#000" d="m14.143 5.571 2.125 1.286-.197.12-1.928-1.157L12.2 6.977l1.942 1.166L12 9.458 9.857 8.387 5.786 10.83v2.426l3.964 2.37v-2.25L7.73 12.154l-.017-.21 2.143 1.247L12 11.948l2.143 1.243 2.125-1.243v.206l-2.018 1.222v2.25l3.968-2.37V10.83l-1.932-1.187-.018-.227 2.16 1.298v2.657l-6.222 3.686 1.937 1.127 2.125-1.243v.202l-2.125 1.285L12 17.181l-2.143 1.247-2.126-1.281v-.21l2.126 1.247 1.937-1.127-6.223-3.686v-2.657l4.286-2.571L12 9.214l1.731-1.071-3.874-2.327-1.984 1.157-.159-.116 2.143-1.286L12 6.857zM12 16.937l2.036-1.183v-2.383L12 12.188l-2.036 1.188v2.378z"/></g><defs><clipPath id="a"><path fill="#fff" d="M0 0h24v24H0z"/></clipPath></defs></svg>
